icon-themes/breeze_svg/cmd/sc_copy.svg

<svg viewBox="0 0 16 16" xmlns="http://www.w3.org/2000/svg">/&gt;<path d="m3 2v.75 10.25h1 1 1v1h5l3-3v-.75-5.25-1h-1v-2h-1.357422-7.8574218zm1 1h8v1h-6v1 7h-1-1zm3 2h6v5h-2-1v1 2h-3z" fill="#4d4d4d"/></svg>

<svg xmlns="http://www.w3.org/2000/svg" viewBox="0 0 16 16">
     />
 <path 
     style="fill:#4d4d4d" 
     d="M 3 2 L 3 2.75 L 3 13 L 4 13 L 5 13 L 6 13 L 6 14 L 11 14 L 14 11 L 14 10.25 L 14 5 L 14 4 L 13 4 L 13 2 L 11.642578 2 L 3.7851562 2 L 3 2 z M 4 3 L 12 3 L 12 4 L 6 4 L 6 5 L 6 12 L 5 12 L 4 12 L 4 3 z M 7 5 L 13 5 L 13 10 L 11 10 L 10 10 L 10 11 L 10 13 L 7 13 L 7 5 z "
     />
 </svg>
